X:148
T:Jeanette & Jeanniott. Le4.148
Q:1/4=100
L:1/8
B:L.Leadley MS#4 c1850
Z:vmp.Mike Hicken 2016 www.village-music-project.org.uk
N: * In the original this note is shown as a quaver but has been changed to a semi-quaver to give the correct bar length.
N: After the tune Laurance Leadley is written on the stave.
M:2/4
K:G
G A|B B B> B |B2 B> c|d B G> A|B2 B B|c c c> c|c B B> B|B G A> ^G|A2 ^G A |
B> B B B |B2 (Bc)|d B G> "*"A|B2 B d|d c B A|G> F G A |B2- B "*"A| G z F G|A> ^G A B |
A2 F G|A> G A B |A2 d d|d F F F|(FE) B> B|B< A G> E|D2 G> A|B> B B B |
B B B> c|d B G A |B2 B d|d c B A|c B A G|G F G> A|B2 B d|
d c B A|c B A G|G F !fermata!B> A G2 |]

